X:20
T:Killavil Jig, The
M:6/8
L:1/8
R:jig
K:EDor
dc|:BEE BEE|Bdf edB|BAF FEF|DFA dBA|BEE BEE|Bdf edB|BAF dFF|FED E3:|
|:e2 f gfe|faf edB|BAF FEF|DFA dBA|Bef gfe|faf edB|BAF dFF|1FED E3:|2FED
